X:1
T:James Gibb editions
T:Creator alma siderum - Thermignon
T:#
%%score { 1 | 2 } 3
L:1/8
Q:1/4=176
M:2/2
K:Eb
V:1 treble nm="Soprano I" snm="S"
V:2 treble 
V:3 treble nm="Alto" snm="A"
V:1
"^Creator alme siderum""^Delfino Thermignon\n (1861-1944)""^moderato" e4 (d2 c2) | B4 (c2 c2) | %2
w: Cre- a- tor|al- me *|
w: Com- mu- ne|qui mun- di|
w: Te de- pre-|ca- mur *|
w: Vir- tus, *|ho- nor, laus,|
 (c4 (B2 A2)) |"^," G8 | B4 (c2 d2) | e4 (g2 g2) | (f6 c2) | (d4"^," d4) |[M:2/2] e4 B2 c2 | %9
w: si- de\- *|rum,|ae- ter- na|lux cre\- *|den- ti-|um, *|Je- su, Re-|
w: ne\- * *|fas|ut ex- pi-|a- res, *|ad *|cru- cem|e Vir- gi-|
w: ul- ti\- *|mae|ma- gnum di-|e- i *|Ju- di-|cem: *|ar- mis su-|
w: glo- ri\- *|a|De- o *|Pa- tri cum|Fi- li-|o, *|San- cto si-|
 B6 A2 | G6 G2 | G4 z2 G2 | (F2 G2) (A2 c2) | f4 e4 | (e2 c2) d4 | !fermata!e8 || (G4 A2) B2 | %17
w: dem- ptor|o- mni|um, in-|ten\- * de *|vo- tis|sup\- * pli-|cum.|A\- * men,|
w: nis sa-|cra- ri-|o in-|ta\- * cta *|pro- dis|vi\- * cti-|ma.||
w: per- nae|gra- ti-|ae de-|fen\- * de *|nos ab|ho\- * sti-|bus.||
w: mul Pa-|ra- cli-|to, in|sae\- * cu\- *|lo- rum|sae\- * cu-|la.||
 (c6 BA | G2 A2 F4) | !fermata!E8 |] %20
w: A\- * *||men.|
w: |||
w: |||
w: |||
V:2
 G4 (B2 A2) | G4 (G2 G2) | (F4 F4) |"^," E8 | F4 (G2 A2) | B4 (B2 B2) | (=A6 A2) | (B4"^," B4) | %8
w: Cre- a- tor|al- me *|si- de-|rum,|ae- ter- na|lux cre\- *|den- ti-|um, *|
w: Com- mu- ne|qui mun- di|ne\- *|fas|ut ex- pi-|a- res, *|ad *|cru- cem|
w: Te de- pre-|ca- mur *|ul- ti-|mae|ma- gnum di-|e- i *|Ju- di-|cem: *|
w: Vir- tus, *|ho- nor, laus,|glo- ri-|a|De- o *|Pa- tri cum|Fi- li-|o, *|
[M:2/2] G4 G2 G2 | F4 D4 | E6 E2 | E4 z4 | z4 z2 A2 | c2 c2 B2 B2 | A4 B4 | !fermata!G8 || E8- | %17
w: Je- su, Re-|dem- ptor|o- mni|um,|in-|ten- de vo- tis|sup- pli-|cum.|A\-|
w: e Vir- gi-|nis sa-|cra- ri-|o|in-|ta- cta pro- dis|vi- cti-|ma.||
w: ar- mis su-|per- nae|gra- ti-|ae|de-|fen- de nos ab|ho- sti-|bus.||
w: San- cto si-|mul Pa-|ra- cli-|to,|in|sae- cu- lo- rum|sae- cu-|la.||
 E4 D4 | (E4 D4) | !fermata!E8 |] %20
w: * men,|A\- *|men.|
w: |||
w: |||
w: |||
V:3
 E4 (B,2 D2) | E4 (E2 E2) | (D4 D4) |"^," E8 | D4 (E2 F2) | G4 (E2 E2) | F6 F2 | (B,4"^," B,4) | %8
w: Cre- a- tor|al- me *|si- de-|rum,|ae- ter- na|lux cre\- *|den- ti-|um, *|
w: Com- mu- ne|qui mun- di|ne\- *|fas|ut ex- pi-|a- res, *|ad *|cru- cem|
w: Te de- pre-|ca- mur *|ul- ti-|mae|ma- gnum di-|e- i *|Ju- di-|cem: *|
w: Vir- tus, *|ho- nor, laus,|glo- ri-|a|De- o *|Pa- tri cum|Fi- li-|o, *|
[M:2/2] E4 E2 E2 | D4 B,4 | C6 C2 | C4 z2 E2 | (D2 E2) F4 | A4 G4 | F4 B,4 | !fermata!E8 || (E8 | %17
w: Je- su, Re-|dem- ptor|o- mni|um, in-|ten\- * de|vo- tis|sup- pli-|cum.|A\-|
w: e Vir- gi-|nis sa-|cra- ri-|o in-|ta\- * cta|pro- dis|vi- cti-|ma.||
w: ar- mis su-|per- nae|gra- ti-|ae de-|fen\- * de|nos ab|ho- sti-|bus.||
w: San- cto si-|mul Pa-|ra- cli-|to, in|sae\- * cu-|lo- rum|sae- cu-|la.||
 A,4) B,4 | (C2 A,2 B,4) | !fermata!E8 |] %20
w: * men,|A\- * *|men.|
w: |||
w: |||
w: |||

